X: 1
T: Anderson Family Fling, The
M: 4/4
L: 1/8
R: strathspey
K: Gmaj
|: d>c |
B<GB>d g>fe>d | e<cd>B A2 d>c |
B2 (3Bcd g>fe>d | (3efg f>a g2- :|
g>a |
b>g (3agf g>fe<d | e>cd>B (3ABA (3fga |
b2 a>f g<fe<d | e>gf>a g<fg>a |
b>g (3gfg a>f (3fgf | g>ef>d e>cB<A |
(3BAG (3Bcd g2 e<d | e>gf<a g2 ||
